X: 155
T: the Wild Irishman
B: 204 Favourite Country Dances
N: Published by Straight & Skillern, London ca.1775
F: http://imslp.org/wiki/204_Favourite_Country_Dances_(Various) p.78 #155
Z: 2014 John Chambers <jc:trillian.mit.edu>
N: The trilled e in bar 14 has a dot which was removed; this tune would be better in 6/8 time.
M: 2/4
L: 1/8
K: D
% - - - - - - - - - - - - - - - - - - - - - - - - -
|:\
d>ef>d | g>ef>c | d>ef>d | c2e2 |\
d>ef>d | g>ef>d | f>a (3(gec) | d2 D2 :|
|:\
(3(afd) (3(Ace) | (3(Ace) (3(Ace) | (3(Ace) (3(Ace) | (3(Ace) (3(efg) |\
(3(afd) (3(Ace) | (3(Ace) Te2 | (3(dfa) (3(gec) | d2D2 :|
% - - - - - - - - - - - - - - - - - - - - - - - - -
%%begintext align
%% The 1st and 2d Cu. foot Right hands across .| Left
%% hands back again .|. Lead down 2 Cu. foot it to
%% your Partner :|. Lead up to the top and Cast off :|:
%%endtext

%%sep 1 1 500
%%sep 1 1 500
